Phone repair/img/microphone.svg

<svg width="30" height="30" viewBox="0 0 30 30" fill="none" xmlns="http://www.w3.org/2000/svg">
<path d="M25 10C24.31 10 23.75 10.56 23.75 11.25V16.875C23.75 21.2744 20.4831 24.9156 16.25 25.525V23.6306C19.445 23.0406 21.875 20.2388 21.875 16.875V6.875C21.875 3.08437 18.7906 0 15 0C11.2094 0 8.125 3.08437 8.125 6.875V16.875C8.125 20.2388 10.555 23.0406 13.75 23.6306V25.525C9.51688 24.9156 6.25 21.2744 6.25 16.875V11.25C6.25 10.56 5.69 10 5 10C4.31 10 3.75 10.56 3.75 11.25V16.875C3.75 22.6556 8.13312 27.4269 13.75 28.0513V28.75C13.75 29.44 14.31 30 15 30C15.69 30 16.25 29.44 16.25 28.75V28.0513C21.8669 27.4269 26.25 22.6556 26.25 16.875V11.25C26.25 10.56 25.69 10 25 10ZM15 21.25C12.8006 21.25 10.98 19.6169 10.675 17.5H12.5C13.19 17.5 13.75 16.94 13.75 16.25C13.75 15.56 13.19 15 12.5 15H10.625V13.125H12.5C13.19 13.125 13.75 12.565 13.75 11.875C13.75 11.185 13.19 10.625 12.5 10.625H10.625V8.75H12.5C13.19 8.75 13.75 8.19 13.75 7.5C13.75 6.81 13.19 6.25 12.5 6.25H10.675C10.98 4.13312 12.8006 2.5 15 2.5C17.1994 2.5 19.02 4.13312 19.325 6.25H17.5C16.81 6.25 16.25 6.81 16.25 7.5C16.25 8.19 16.81 8.75 17.5 8.75H19.375V10.625H17.5C16.81 10.625 16.25 11.185 16.25 11.875C16.25 12.565 16.81 13.125 17.5 13.125H19.375V15H17.5C16.81 15 16.25 15.56 16.25 16.25C16.25 16.94 16.81 17.5 17.5 17.5H19.325C19.02 19.6169 17.1994 21.25 15 21.25Z" fill="#FF005C"/>
</svg>

<svg width="30" height="30" fill="none" xmlns="http://www.w3.org/2000/svg"><path d="M25 10c-.69 0-1.25.56-1.25 1.25v5.625c0 4.4-3.267 8.04-7.5 8.65v-1.894c3.195-.59 5.625-3.392 5.625-6.756v-10A6.883 6.883 0 0 0 15 0a6.883 6.883 0 0 0-6.875 6.875v10c0 3.364 2.43 6.166 5.625 6.756v1.894c-4.233-.61-7.5-4.25-7.5-8.65V11.25a1.25 1.25 0 0 0-2.5 0v5.625c0 5.78 4.383 10.552 10 11.176v.699a1.25 1.25 0 0 0 2.5 0v-.699c5.617-.624 10-5.395 10-11.176V11.25c0-.69-.56-1.25-1.25-1.25ZM15 21.25c-2.2 0-4.02-1.633-4.325-3.75H12.5a1.25 1.25 0 0 0 0-2.5h-1.875v-1.875H12.5a1.25 1.25 0 0 0 0-2.5h-1.875V8.75H12.5a1.25 1.25 0 0 0 0-2.5h-1.825A4.378 4.378 0 0 1 15 2.5c2.2 0 4.02 1.633 4.325 3.75H17.5a1.25 1.25 0 0 0 0 2.5h1.875v1.875H17.5a1.25 1.25 0 0 0 0 2.5h1.875V15H17.5a1.25 1.25 0 0 0 0 2.5h1.825A4.378 4.378 0 0 1 15 21.25Z" fill="#FF005C"/></svg>
